X: 341
T: I AWOKE FROM MY DREAM
T: Do dhuisigh me ua mo aisling
B: O'Neill's 341
M: 6/8
L: 1/8
Z: 1999 by John Chambers <jc@trillian.mit.edu>
N: "Gaily"
N: "Collected by J.O'Neill"
K:D
A \
| ABc d2d | d2d edc/A/ | ABc d2d | fed cdB |
| ABc d2d | e>dc BcA | d2d ecA | d3 d2 ||
|| f/g/ \
| a2f gfg | a3 f3 | e2e efd | B3 A2A |
| ABc d2d | e>dc BcA | d2d ecA | d3 d2 ||


